X: 4
T: Eddie Moloney's Favorite
R: reel
M: 4/4
L: 1/8
K: Edor
B2GB eBGB|A2FA DAFA|B2gB eBg2|Bd (3cBA GEEd|
B2gB eBgB|A2FA DAFA|dBBA B2 (3cBA|(3Bcd BA Geef||
g2ef gfed|(3Bcd BA Geef|geef (3gfe fd|Beed Beef|
g2fa gfed|Bd (3cBA GEAG|EDEF G2GA|(3Bcd ef gfed||


Tune 323	Setting 13096

